X:2016
T:Bonnie Kate
R:March
O:Scotland via Ireland
M:4/4
L:1/4
Q:1/4=180
K:G
e/f/|"G"g>f "D"g>f|"G"gd dB|"C"c/d/e "D"dc|"G"BG G>A|
"G"B"Em"G GA/B/|"Am"c"D"A Ac|"G"B/c/d "C"cB|"D"A3:|
|:G/A/|"G"BG GA/B/|"D"cA "G7"dB|"C"ec cd/e/|"D"fz de/f/|
"G"g>a "Em"g>e|"Bm"de/f/ "Em"gB|"Am"ce "D"d/e/d/c/|"G"BG G:|

